X: 61
T: Grandfathers Tune
B: canberra pickers and fiddlers
B: old time tunes update
B: tunes
M:4/4
L:1/8
Q: 1/4=170
K:D
V:1 
AG|F2 A2 B2 c2|dcde f2 a2|g2 f2 e2 d2|c2 B2 A2 AG|
F2 A2 B2 c2|dcde f2 a2|g2 f2 e2 Bc|d2 f2 d2||
cd|e2 A2 e2 A2|g2 f2 e3 A|g2 f2 e2 d2|c2 B2 A3 G|
F2 A2 B2 c2|dcde f2 a2|g2 f2 e2 Bc|d2 f2 d2||
% abcbook-tune_id 67a7d9ec836319cc4c2405a5
% abcbook-tune_composer_id 
% abcbook-link-0 https://www.youtube.com/watch?v=yyvjznKDi6E
% abcbook-link-title-0 Grandfather&#39;s Tune
% abcbook-boost 0
% abcbook-difficulty 0
% abcbook-tags old time tunes
% abcbook-tablature 
% abcbook-transpose -5
% abcbook-tuning AEAE
% abcbook-lastupdated 1739164337327
% abcbook-src-url 
% abcbook-soundfonts 
% abcbook-repeats 1
%%MIDI transpose -5
% Titles One title
% Transcriptions Only 1 transcription
% Movement Has lots of stepwise movement
% Movement Has some stepwise movement
% Mode major
% Key D
% Time_signature 4/4
% Has_accompaniment_chords No chords

